X: 30441
T: Old Walls Of Liscarroll, The
R: jig
M: 6/8
K: Dmixolydian
ABA DEG|AGE Adc|AGE CGE|GEA DEG|
GAA DAD|AGE A2c|AGE cGE|DED D3:|
Add ABc|d2e dcA|GEE CEE|GED DEG|
Adc ABc|d2e dcA|GEE cEE|DED D3|
Adc ABc|dee dcA|~G3 cGE|GEA DEG|
GAA DAD|AGE A2c|AGE cGE|DED D3|

